build/img/clock.svg

<?xml version="1.0" encoding="UTF-8"?><svg xmlns="http://www.w3.org/2000/svg" width="368" height="368" viewBox="0 0 368 368" fill="none"> <path d="M0 184C0 220.392 10.7914 255.966 31.0096 286.225C51.2278 316.484 79.9646 340.067 113.586 353.994C147.208 367.92 184.204 371.564 219.897 364.464C255.589 357.365 288.375 339.84 314.108 314.108C339.84 288.375 357.365 255.589 364.464 219.897C371.564 184.204 367.92 147.208 353.994 113.586C340.067 79.9646 316.484 51.2278 286.225 31.0096C255.966 10.7914 220.392 0 184 0C135.2 0 88.399 19.3857 53.8923 53.8923C19.3857 88.399 0 135.2 0 184V184ZM352 184C352 217.227 342.147 249.708 323.687 277.336C305.227 304.963 278.989 326.496 248.291 339.212C217.593 351.927 183.814 355.254 151.225 348.772C118.636 342.29 88.7013 326.289 65.2061 302.794C41.7108 279.299 25.7104 249.364 19.2281 216.775C12.7458 184.186 16.0727 150.407 28.7882 119.709C41.5038 89.0112 63.0367 62.7732 90.6642 44.3131C118.292 25.853 150.773 16 184 16C228.556 16 271.288 33.6999 302.794 65.2061C334.3 96.7122 352 139.444 352 184Z" fill="white"></path> <path d="M32 184C32 214.063 40.9146 243.45 57.6166 268.447C74.3186 293.443 98.0578 312.925 125.832 324.43C153.606 335.934 184.169 338.944 213.654 333.079C243.139 327.214 270.223 312.738 291.48 291.48C312.738 270.223 327.214 243.139 333.079 213.654C338.944 184.169 335.934 153.606 324.43 125.832C312.925 98.0578 293.443 74.3186 268.447 57.6166C243.45 40.9146 214.063 32 184 32C143.687 32 105.025 48.0142 76.5198 76.5198C48.0142 105.025 32 143.687 32 184V184ZM269.68 109.68L285.68 93.68C306.091 116.455 318.188 145.471 320 176H296V192H320C318.219 222.444 306.211 251.394 285.92 274.16L269.92 258.16L258.56 269.52L274.56 285.52C251.744 306.039 222.633 318.197 192 320V296H176V320C145.556 318.219 116.606 306.211 93.84 285.92L109.84 269.92L98.48 258.56L82.48 274.56C62.1061 251.689 50.0917 222.583 48.4 192H72V176H48.4C50.1806 145.556 62.1893 116.606 82.48 93.84L98.48 109.84L109.84 98.48L93.84 82.48C116.606 62.1893 145.556 50.1806 176 48.4V72H192V48.4C222.444 50.1806 251.394 62.1893 274.16 82.48L258.16 98.48L269.68 109.68Z" fill="white"></path> <path d="M192 88H176V184C175.994 185.053 176.196 186.097 176.594 187.071C176.992 188.046 177.579 188.932 178.32 189.68L226.32 237.68L237.68 226.32L192 180.72V88Z" fill="white"></path> </svg>

<svg xmlns="http://www.w3.org/2000/svg" width="368" height="368" fill="none"><path d="M0 184a184 184 0 10368 0 184 184 0 00-368 0zm352 0a168.003 168.003 0 01-103.709 155.212 168.007 168.007 0 01-183.085-36.418 167.998 167.998 0 0125.458-258.48A168.001 168.001 0 01352 184z" fill="#fff"/><path d="M32 184a152.002 152.002 0 00181.654 149.079 151.994 151.994 0 00119.425-119.425 152.005 152.005 0 00-64.632-156.037A152.002 152.002 0 0032 184zm237.68-74.32l16-16A135.361 135.361 0 01320 176h-24v16h24a135.36 135.36 0 01-34.08 82.16l-16-16-11.36 11.36 16 16A135.36 135.36 0 01192 320v-24h-16v24a135.36 135.36 0 01-82.16-34.08l16-16-11.36-11.36-16 16A135.36 135.36 0 0148.4 192H72v-16H48.4a135.36 135.36 0 0134.08-82.16l16 16 11.36-11.36-16-16A135.36 135.36 0 01176 48.4V72h16V48.4a135.36 135.36 0 0182.16 34.08l-16 16 11.52 11.2z" fill="#fff"/><path d="M192 88h-16v96a8 8 0 002.32 5.68l48 48 11.36-11.36-45.68-45.6V88z" fill="#fff"/></svg>
